build/payment/MilliWhiteS.svg

<svg xmlns="http://www.w3.org/2000/svg" fill="none" viewBox="0 0 22.004 10.004" focusable="false"><path fill="none" d="M0 0H22.004V10.004H0z"/><path d="M0 0H22V10H0z"/><path fill="#FFF" fill-rule="evenodd" d="M17.6603 0.983998L17.0043 0L16.3483 0.984002C16.1715 0.888273 15.969 0.833919 15.7538 0.833919C15.2948 0.833919 14.8936 1.08121 14.676 1.44984L13.322 1.17903L13.6055 2.59678C13.1535 2.7852 12.8358 3.23127 12.8358 3.75155C12.8358 3.96533 12.8894 4.16658 12.984 4.34257L12 4.99857L12.9868 5.65642C12.8905 5.83362 12.8358 6.0367 12.8358 6.25256C12.8358 6.71937 13.0916 7.12644 13.4706 7.34128L13.179 8.79924L14.6484 8.50536C14.8584 8.90106 15.2746 9.17057 15.7538 9.17057C15.969 9.17057 16.1715 9.11621 16.3484 9.02046L17.0043 10.0044L17.6603 9.02047C17.8371 9.11621 18.0396 9.17057 18.2548 9.17057C18.7377 9.17057 19.1566 8.89691 19.365 8.49622L20.7835 8.77991L20.4999 7.36201C20.8998 7.15338 21.1728 6.73485 21.1728 6.25256C21.1728 6.03586 21.1177 5.83204 21.0207 5.65435L22.0044 4.99857L21.0235 4.34464C21.1188 4.16816 21.1728 3.96617 21.1728 3.75155C21.1728 3.23818 20.8635 2.79706 20.421 2.60442L20.7029 1.19501L19.3426 1.46707C19.1275 1.08894 18.7209 0.833919 18.2548 0.833919C18.0396 0.833919 17.8371 0.888272 17.6603 0.983998ZM16.9552 3.34523C16.9201 3.36401 16.8952 3.42622 16.8454 3.55064L16.5342 4.32847C16.5195 4.36529 16.5121 4.38371 16.5003 4.39769C16.4899 4.41006 16.4771 4.41988 16.4627 4.42645C16.4465 4.43389 16.4276 4.43552 16.3899 4.43878L15.5902 4.50797C15.4608 4.51917 15.3961 4.52477 15.3682 4.55445C15.344 4.58021 15.3328 4.61667 15.3383 4.65255C15.3445 4.69389 15.3939 4.73842 15.4928 4.82748L16.0983 5.37309C16.1274 5.39931 16.1419 5.41242 16.151 5.42868C16.1591 5.44306 16.1641 5.45914 16.1656 5.47578C16.1673 5.49459 16.1629 5.51426 16.154 5.55359L15.9701 6.36953C15.9403 6.50177 15.9254 6.5679 15.9432 6.60509C15.9587 6.63737 15.9878 6.6599 16.0216 6.66576C16.0605 6.67252 16.1156 6.6375 16.2258 6.56746L16.9152 6.12918C16.9474 6.10872 16.9634 6.09849 16.9806 6.09449C16.9958 6.09095 17.0116 6.09095 17.0268 6.09449C17.044 6.09849 17.06 6.10872 17.0922 6.12918L17.7816 6.56746C17.8918 6.63749 17.9469 6.67252 17.9858 6.66576C18.0196 6.6599 18.0487 6.63737 18.0642 6.60509C18.082 6.5679 18.0671 6.50177 18.0373 6.36953L17.8534 5.55359C17.8446 5.51426 17.8401 5.49459 17.8418 5.47578C17.8433 5.45914 17.8483 5.44306 17.8564 5.42868C17.8655 5.41242 17.88 5.39931 17.9091 5.37309L18.5146 4.82748C18.6135 4.73842 18.6629 4.69389 18.6691 4.65255C18.6746 4.61667 18.6635 4.58021 18.6392 4.55445C18.6113 4.52477 18.5466 4.51917 18.4172 4.50797L17.6175 4.43878C17.5798 4.43552 17.5609 4.43389 17.5447 4.42645C17.5303 4.41988 17.5175 4.41006 17.5071 4.39769C17.4953 4.38371 17.488 4.36529 17.4732 4.32847L17.162 3.55064C17.1122 3.42622 17.0873 3.36401 17.0522 3.34523C17.0217 3.32893 16.9857 3.32893 16.9552 3.34523Z"/></svg>

<svg xmlns="http://www.w3.org/2000/svg" fill="none" viewBox="0 0 23 11" focusable="false"><path fill="none" d="M0 0h22.004v10.004H0z"/><path fill="#FFF" fill-rule="evenodd" d="M17.66.98 17 0l-.66.98c-.17-.1-.38-.15-.59-.15-.46 0-.86.25-1.08.61l-1.35-.27.28 1.42c-.45.19-.77.64-.77 1.16 0 .21.05.41.15.59l-.98.65.98.66c-.09.18-.15.38-.15.6 0 .46.26.87.64 1.09l-.3 1.45 1.47-.29a1.253 1.253 0 0 0 1.7.52L17 10l.66-.98c.17.09.37.15.59.15.48 0 .9-.28 1.11-.68l1.42.28-.29-1.41c.4-.21.68-.63.68-1.11 0-.22-.06-.42-.15-.6l.98-.66-.98-.65a1.247 1.247 0 0 0-.6-1.74l.28-1.41-1.36.27c-.22-.38-.62-.63-1.09-.63-.22 0-.42.05-.59.15m-.71 2.36c-.03.02-.06.08-.11.21l-.31.77c-.02.04-.02.06-.03.07-.02.02-.03.02-.04.03-.02.01-.04.01-.08.01l-.79.07c-.13.01-.2.02-.23.05-.02.03-.03.06-.03.1.01.04.06.08.16.17l.6.55c.03.02.05.04.06.05 0 .02.01.03.01.05s0 .04-.01.08l-.18.81c-.03.14-.05.2-.03.24.01.03.04.05.08.06s.09-.03.2-.1l.69-.44c.03-.02.05-.03.07-.03h.04c.02 0 .04.01.07.03l.69.44c.11.07.16.11.2.1.03-.01.06-.03.08-.06.02-.04 0-.1-.03-.24l-.18-.81c-.01-.04-.01-.06-.01-.08s0-.03.01-.05c.01-.01.02-.03.05-.05l.61-.55c.1-.09.15-.13.15-.17.01-.04 0-.07-.03-.1-.02-.03-.09-.04-.22-.05l-.8-.07c-.04 0-.05 0-.07-.01-.01-.01-.03-.01-.04-.03-.01-.01-.02-.03-.03-.07l-.31-.77c-.05-.13-.08-.19-.11-.21a.09.09 0 0 0-.1 0"/></svg>
